X:174
M:4/4
L:1/4
K:G
!sintro!D/ | G/A/ B/c/ B A | (G E) D !eintro!z/ D/ | G/A/ B/ (B A/) G/B/- | B3 z/ D/ | G/A/ B/c/ d B/A/ | (B G) E z/ G/ | G F/ B A G/- | G3 z/ G/ | c c B/A/ G/(B/- | B3/2 A/) A z/ B/ | c c B/A/ G/d/- | d3 z/ D/ | G/A/ B/c/ B A | (G E) D z/ !sintro!G/ | G F/ B A G/- | G2 z3/2 !eintro!|]
